icons/restaurant-11.svg

<?xml version="1.0" encoding="UTF-8" standalone="no"?>
<!-- Generator: Adobe Illustrator 17.1.0, SVG Export Plug-In . SVG Version: 6.00 Build 0)  -->

<svg
   xmlns:dc="http://purl.org/dc/elements/1.1/"
   xmlns:cc="http://creativecommons.org/ns#"
   xmlns:rdf="http://www.w3.org/1999/02/22-rdf-syntax-ns#"
   xmlns:svg="http://www.w3.org/2000/svg"
   xmlns="http://www.w3.org/2000/svg"
   xmlns:sodipodi="http://sodipodi.sourceforge.net/DTD/sodipodi-0.dtd"
   xmlns:inkscape="http://www.inkscape.org/namespaces/inkscape"
   version="1.1"
   id="svg4764"
   x="0px"
   y="0px"
   height='11'
   width='11'
   viewBox="0 0 11 11"
   enable-background="new 0 0 11 11"
   xml:space="preserve"
   inkscape:version="0.91 r"
   sodipodi:docname="restaurant-11.svg"><metadata
     id="metadata8"><rdf:RDF><cc:Work
         rdf:about=""><dc:format>image/svg+xml</dc:format><dc:type
           rdf:resource="http://purl.org/dc/dcmitype/StillImage" /><dc:title></dc:title></cc:Work></rdf:RDF></metadata><defs
     id="defs6" /><sodipodi:namedview
     pagecolor="#ffffff"
     bordercolor="#666666"
     borderopacity="1"
     objecttolerance="10"
     gridtolerance="10"
     guidetolerance="10"
     inkscape:pageopacity="0"
     inkscape:pageshadow="2"
     inkscape:window-width="1012"
     inkscape:window-height="731"
     id="namedview4"
     showgrid="true"
     inkscape:snap-bbox="true"
     inkscape:bbox-paths="true"
     inkscape:bbox-nodes="true"
     inkscape:snap-bbox-edge-midpoints="true"
     inkscape:snap-bbox-midpoints="true"
     inkscape:object-paths="true"
     inkscape:snap-intersection-paths="true"
     inkscape:object-nodes="true"
     inkscape:snap-smooth-nodes="true"
     inkscape:zoom="8"
     inkscape:cx="14.899817"
     inkscape:cy="8.7165798"
     inkscape:window-x="-4"
     inkscape:window-y="0"
     inkscape:window-maximized="0"
     inkscape:current-layer="svg4764"
     showguides="false"
     inkscape:guide-bbox="true"
     showborder="false"><inkscape:grid
       type="xygrid"
       id="grid3336"
       color="#ff0011"
       opacity="0.1254902"
       spacingx="0.5"
       spacingy="0.5"
       empspacing="2" /><sodipodi:guide
       position="0,11"
       orientation="1,0"
       id="guide11183" /><sodipodi:guide
       position="11,11"
       orientation="0,1"
       id="guide11185" /><sodipodi:guide
       position="0,0"
       orientation="0,1"
       id="guide11187" /><sodipodi:guide
       position="11,0"
       orientation="1,0"
       id="guide11189" /></sodipodi:namedview><path
     style="fill:#000000;fill-opacity:1"
     d="M 2.25 0 L 1.75 3.5 C 1.6792893 3.9949747 2.9907703 4.900071 3 5.5 L 3 11 L 4 11 L 4 5.5 C 4 4.9 5.3207107 3.9949747 5.25 3.5 L 4.75 0 L 4.25 0 L 4.5 2.75 L 3.75 3.25 L 3.75 0 L 3.25 0 L 3.25 3.25 L 2.5 2.75 L 2.75 0 L 2.25 0 z M 9 0 C 7.5 0 7.006423 1.724243 7 3 L 7 6 L 8 6 L 8 11 L 9 11 L 9 0 z "
     id="path11193" /></svg>

<?xml version="1.0" encoding="utf-8"?>
<!-- Generator: Adobe Illustrator 19.2.1, SVG Export Plug-In . SVG Version: 6.00 Build 0)  -->
<!DOCTYPE svg PUBLIC "-//W3C//DTD SVG 1.1//EN" "http://www.w3.org/Graphics/SVG/1.1/DTD/svg11.dtd">
<svg version="1.1"
	 id="svg4764" inkscape:version="0.91 r" sodipodi:docname="restaurant-11.svg" xmlns:cc="http://creativecommons.org/ns#" xmlns:dc="http://purl.org/dc/elements/1.1/" xmlns:inkscape="http://www.inkscape.org/namespaces/inkscape" xmlns:rdf="http://www.w3.org/1999/02/22-rdf-syntax-ns#" xmlns:sodipodi="http://sodipodi.sourceforge.net/DTD/sodipodi-0.dtd" xmlns:svg="http://www.w3.org/2000/svg"
	 xmlns="http://www.w3.org/2000/svg" xmlns:xlink="http://www.w3.org/1999/xlink" x="0px" y="0px" width="11px" height="11px"
	 viewBox="0 0 11 11" style="enable-background:new 0 0 11 11;" xml:space="preserve">
<path id="path11193" d="M2.25,0l-0.5,3.5C1.6793,3.995,2.9908,4.9001,3,5.5V11h1V5.5c0-0.6,1.3207-1.505,1.25-2L4.75,0h-0.5
	L4.5,2.75l-0.75,0.5V0h-0.5v3.25L2.5,2.75L2.75,0H2.25z M9,0C7.5,0,7.0064,1.7242,7,3v3h1v5h1V0z"/>
</svg>
